src/categories-icons-sprite/categories/svg-cat-electr-household.svg

<svg width="32" height="34" viewBox="0 0 32 34" fill="none" xmlns="http://www.w3.org/2000/svg">
<path class="p-088690" d="M27.1855 33.6853C27.7279 33.5116 28.0268 32.9309 27.8531 32.3884L23.7093 19.4519L21.7447 20.0812L24.3395 28.1818H7.49969L10.0942 20.0812L8.12962 19.452L4.67285 30.2447H25.0003L25.8885 33.0177C26.0623 33.5602 26.6429 33.8591 27.1855 33.6853Z" fill="#4D98CB"/>
<path class="p-088690" d="M18.8753 11.2142V2.95523C18.8753 1.3231 17.5522 0 15.9201 0C14.2879 0 12.9648 1.3231 12.9648 2.95523V11.2142C12.9648 12.8463 14.2879 14.1694 15.9201 14.1694C17.5522 14.1694 18.8753 12.8463 18.8753 11.2142Z" fill="#4D98CB"/>
<path class="p-0BAEBC" d="M15.9201 14.1694V0C14.288 0 12.9648 1.32312 12.9648 2.95528V14.1694H15.9201Z" fill="#58ADE5"/>
<path class="p-B5CDDF" d="M19.1247 3.25024H12.7134C7.62334 3.25024 3.49707 7.37645 3.49707 12.4665V14.1695V15.8724C3.49707 20.9625 7.62334 25.0887 12.7134 25.0887H19.1247C24.2147 25.0887 28.341 20.9625 28.341 15.8724V14.1695V12.4665C28.341 7.37645 24.2147 3.25024 19.1247 3.25024Z" fill="#A1D1FD"/>
<path class="p-C9E5F9" d="M12.7134 3.25024C7.62334 3.25024 3.49707 7.37645 3.49707 12.4665V14.1695V15.8724C3.49707 20.9624 7.62334 25.0887 12.7134 25.0887H15.919V14.1695V3.25024H12.7134Z" fill="#B9DFFC"/>
<path class="p-088690" d="M30.8067 13.1377H1.03145C0.461797 13.1377 0 13.5995 0 14.1691C0 14.7388 0.461796 15.2006 1.03145 15.2006H30.8067C31.3763 15.2006 31.8381 14.7388 31.8381 14.1691C31.8381 13.5995 31.3763 13.1377 30.8067 13.1377Z" fill="#4D98CB"/>
<path class="p-0BAEBC" d="M15.9194 13.1377H1.03145C0.461797 13.1377 0 13.5995 0 14.1691C0 14.7388 0.461796 15.2006 1.03145 15.2006H15.9194V13.1377Z" fill="#58ADE5"/>
<path class="p-EE2712" d="M5.84519 33.6852C7.84801 33.6852 9.47162 32.0616 9.47162 30.0588C9.47162 28.056 7.84801 26.4324 5.84519 26.4324C3.84236 26.4324 2.21875 28.056 2.21875 30.0588C2.21875 32.0616 3.84236 33.6852 5.84519 33.6852Z" fill="#65B3E7"/>
<path class="p-FF5D3D" d="M5.84518 26.4324C3.84231 26.4324 2.21875 28.0559 2.21875 30.0588C2.21875 32.0617 3.84231 33.6852 5.84518 33.6852V26.4324Z" fill="#5FBEFF"/>
<path class="p-B5CDDF" d="M5.84534 31.3452C5.13579 31.3452 4.55859 30.768 4.55859 30.0585C4.55859 29.349 5.13586 28.7717 5.84534 28.7717C6.55483 28.7717 7.13209 29.349 7.13209 30.0585C7.13209 30.768 6.55489 31.3452 5.84534 31.3452Z" fill="#A1D1FD"/>
<path class="p-C9E5F9" d="M5.84534 28.7717C5.13579 28.7717 4.55859 29.3491 4.55859 30.0585C4.55859 30.768 5.13586 31.3453 5.84534 31.3453V28.7717Z" fill="#B9DFFC"/>
</svg>

<svg width="32" height="34" fill="none" xmlns="http://www.w3.org/2000/svg"><path class="p-088690" d="M27.186 33.685c.542-.173.84-.754.667-1.297L23.71 19.452l-1.964.63 2.595 8.1H7.5l2.594-8.1-1.964-.63-3.457 10.793H25l.889 2.773c.173.542.754.841 1.297.667zM18.875 11.214V2.955a2.955 2.955 0 10-5.91 0v8.26a2.955 2.955 0 005.91 0z" fill="#4D98CB"/><path class="p-0BAEBC" d="M15.92 14.17V0a2.955 2.955 0 00-2.955 2.955V14.17h2.955z" fill="#58ADE5"/><path class="p-B5CDDF" d="M19.125 3.25h-6.412a9.216 9.216 0 00-9.216 9.216V15.872a9.216 9.216 0 009.216 9.217h6.412a9.216 9.216 0 009.216-9.217v-3.406a9.216 9.216 0 00-9.216-9.216z" fill="#A1D1FD"/><path class="p-C9E5F9" d="M12.713 3.25a9.216 9.216 0 00-9.216 9.216V15.872a9.216 9.216 0 009.216 9.217h3.206V3.25h-3.206z" fill="#B9DFFC"/><path class="p-088690" d="M30.807 13.138H1.03a1.031 1.031 0 100 2.063h29.776a1.031 1.031 0 000-2.063z" fill="#4D98CB"/><path class="p-0BAEBC" d="M15.92 13.138H1.03a1.031 1.031 0 100 2.063H15.92v-2.063z" fill="#58ADE5"/><path class="p-EE2712" d="M5.845 33.685a3.626 3.626 0 100-7.253 3.626 3.626 0 000 7.253z" fill="#65B3E7"/><path class="p-FF5D3D" d="M5.845 26.432a3.626 3.626 0 100 7.253v-7.253z" fill="#5FBEFF"/><path class="p-B5CDDF" d="M5.845 31.345c-.71 0-1.286-.577-1.286-1.287 0-.709.577-1.286 1.286-1.286.71 0 1.287.577 1.287 1.287 0 .709-.577 1.286-1.287 1.286z" fill="#A1D1FD"/><path class="p-C9E5F9" d="M5.845 28.772c-.71 0-1.286.577-1.286 1.287 0 .709.577 1.286 1.286 1.286v-2.573z" fill="#B9DFFC"/></svg>
